static/assets/images/exchanges/weex.svg

<svg width="465" height="256" viewBox="0 0 465 256" fill="none" xmlns="http://www.w3.org/2000/svg">
<path fill-rule="evenodd" clip-rule="evenodd" d="M258.734 163.279L325.418 95.996L232.356 0L139.305 95.996L205.988 163.087L164.282 205.346L52.9819 95.9853L104.005 44.2115H149.52L183.996 6.96504H87.4683L0.65332 95.996L164.282 255.808L232.367 189.869L300.441 256L464.069 95.996L377.265 7.15704H280.727L315.202 44.3928H360.728L411.741 95.9747L300.441 205.538L258.734 163.279ZM232.367 133.936L193.591 95.9747L232.367 55.123L271.132 95.9747L232.367 133.936Z" fill="#F3D428"/>
</svg>

<svg xmlns="http://www.w3.org/2000/svg" fill="none" viewBox="0 0 465 256"><path fill="#F3D428" fill-rule="evenodd" d="m258.734 163.279 66.684-67.283L232.356 0l-93.051 95.996 66.683 67.091-41.706 42.259-111.3-109.36 51.023-51.774h45.515l34.476-37.247H87.468L.653 95.996l163.629 159.812 68.085-65.939L300.441 256 464.069 95.996 377.265 7.157h-96.538l34.475 37.236h45.526l51.013 51.582-111.3 109.563zm-26.367-29.343-38.776-37.961 38.776-40.852 38.765 40.852z" clip-rule="evenodd"/></svg>
